X:36
T:Breakdown
M:2/4
L:1/16
Z: Jason R. Fruit <Jason R. Fruit@big-mac>
N: From playing of Bob Walters.  Good tune.
K:A
ab | c'ac'a baba | c'ac'a e2ab | c'ac'a bc'bg | a2c'a e2ab |
c'ac'a baba | c'ac'a e2ab | c'ac'a egbg | a3a a2 z2 |
(3(fgf)ec A4 | fefg a2a2 | (3(fgf)ec ABcA | BAGB A2A2 |
(3(fgf)ec A4 | fefg a2ae | fgae fecA | BAGB A2A2 |
A,2CE A2Ac | BAGB ABc2 | A,2CE ABcA | BAGF EDCB, |
A,2CE A2Ac | BAGB ABcA | A,2CE ABcA | BAGB A2 :|

